src/assets/outline/Celsius.svg

<svg width="24" height="24" viewBox="0 0 24 24"  xmlns="http://www.w3.org/2000/svg">
<path d="M12.0001 18.1906C8.59006 18.1906 5.81006 15.4105 5.81006 12.0005C5.81006 8.59055 8.59006 5.81055 12.0001 5.81055C13.3501 5.81055 14.6401 6.24055 15.7201 7.05055C16.0501 7.30055 16.1201 7.77056 15.8701 8.10056C15.6201 8.43056 15.1501 8.50055 14.8201 8.25055C14.0001 7.63055 13.0301 7.31055 12.0001 7.31055C9.42006 7.31055 7.31006 9.41055 7.31006 12.0005C7.31006 14.5905 9.41006 16.6906 12.0001 16.6906C13.4801 16.6906 14.8401 16.0106 15.7401 14.8306C15.9901 14.5006 16.4601 14.4406 16.7901 14.6906C17.1201 14.9406 17.1801 15.4106 16.9301 15.7406C15.7501 17.2906 13.9501 18.1906 12.0001 18.1906Z" />
<path d="M17.42 12.09C16.36 12.09 15.5 11.23 15.5 10.17C15.5 9.11 16.36 8.25 17.42 8.25C18.48 8.25 19.34 9.11 19.34 10.17C19.34 11.23 18.48 12.09 17.42 12.09ZM17.42 9.75C17.19 9.75 17 9.94 17 10.17C17 10.4 17.19 10.59 17.42 10.59C17.65 10.59 17.84 10.4 17.84 10.17C17.84 9.94 17.65 9.75 17.42 9.75Z" />
<path d="M12 22.75C6.07 22.75 1.25 17.93 1.25 12C1.25 6.07 6.07 1.25 12 1.25C17.93 1.25 22.75 6.07 22.75 12C22.75 17.93 17.93 22.75 12 22.75ZM12 2.75C6.9 2.75 2.75 6.9 2.75 12C2.75 17.1 6.9 21.25 12 21.25C17.1 21.25 21.25 17.1 21.25 12C21.25 6.9 17.1 2.75 12 2.75Z" />
</svg>

<?xml version="1.0" encoding="UTF-8"?>
<svg width="24" height="24" viewBox="0 0 24 24" xmlns="http://www.w3.org/2000/svg">
 <path d="m12 18.191c-3.41 0-6.19-2.7801-6.19-6.1901 0-3.41 2.78-6.19 6.19-6.19 1.35 0 2.64 0.43 3.72 1.24 0.33 0.25 0.4 0.72001 0.15 1.05s-0.72 0.39999-1.05 0.14999c-0.82-0.62-1.79-0.94-2.82-0.94-2.58 0-4.69 2.1-4.69 4.69 0 2.59 2.1 4.6901 4.69 4.6901 1.48 0 2.84-0.68 3.74-1.86 0.25-0.33 0.72-0.39 1.05-0.14s0.39 0.72 0.14 1.05c-1.18 1.55-2.98 2.45-4.93 2.45z"/>
 <path d="m17.42 12.09c-1.06 0-1.92-0.86-1.92-1.92s0.86-1.92 1.92-1.92 1.92 0.86 1.92 1.92-0.86 1.92-1.92 1.92zm0-2.34c-0.23 0-0.42 0.19-0.42 0.42s0.19 0.42 0.42 0.42 0.42-0.19 0.42-0.42-0.19-0.42-0.42-0.42z"/>
 <path d="m12 22.75c-5.93 0-10.75-4.82-10.75-10.75s4.82-10.75 10.75-10.75 10.75 4.82 10.75 10.75-4.82 10.75-10.75 10.75zm0-20c-5.1 0-9.25 4.15-9.25 9.25s4.15 9.25 9.25 9.25 9.25-4.15 9.25-9.25-4.15-9.25-9.25-9.25z"/>
</svg>
